X:1
T:The Maple Leaf Forever
T:The Maple Leaf Forever
T:Alexander Muir
T:Alexander Muir, 1867
T:Public Domain Courtesy of the Cyber Hymnal™
T:Public Domain Courtesy of the Cyber Hymnal™
C:Alexander Muir
Z:Public Domain
Z:Courtesy of the Cyber Hymnal™
%%score ( 1 2 ) ( 3 4 )
L:1/8
Q:1/4=110
M:4/4
K:Bb
V:1 treble 
V:2 treble 
V:3 bass 
V:4 bass 
V:1
 [DF]2 | [B,D]2 [DF]2 [Fd]3 [FB] | [EG]2 [EB]2 [DF]4 | [EA]3 [DB] [Ec]2 [DB]2 | %4
w: 1.~In|days of yore, from|Bri- tain’s shore,|Wolfe, the daunt- less|
w: 2.~At|Queens- ton Heights and|Lun- dy’s Lane|Our brave fa- thers|
w: 3.~Our|fair do- min- ion|now ex- tends|From Cape Race to|
w: 4.~On|mer- ry Eng- land’s|far- famed land|May kind Heav- en|
 [=EA]2 [EG]2 F3 [C_E] | [B,D]2 [DF]2 [DB]2 [DB]2 | [Fd]2 [FB]2 [EG]2 (AB) | %7
w: he- ro, came And|plant- ed firm Bri-|tan- nia’s flag On *|
w: side by side For|free- dom’s right and|loved ones dear Firm- *|
w: Noot- ka Sound; May|peace for- ev- er|be our lot And *|
w: sweet- ly smile; God|bless old Scot- land|ev- er- more And *|
 [Fc][Fc] [=EB]2 [EA]2 ([EG]F) | F4 [EF]2 [EF]2 | [DG]2 [DF]2 [DB]3 [DF] | [EG]2 [EB]2 [DF]3 [DF] | %11
w: Ca- na- da’s fair do- *|main! Here may|* it wave, our|boast, our pride, And|
w: ly stood and no- bly *|died. And those|* dear rights which|they main- tained We|
w: plen- te- ous store a- *|bound; And may|* those ties of|love be ours Which|
w: Ire- land’s Em- er- ald *|isle. Then swell|* the song both|loud and long, Till|
 [EG]2 [FG]2 [Ge]3 [Gd] | [Fd] [Fc]3 z2 F2 | [Ff]2 [Fd]2 [FB]2 [FA]2 | [EG]2 [EB]2 [DF]3 [DF] | %15
w: join in love to-|ge- ther, The|This- tle, Sham- rock,|Rose en- twine, The|
w: swear to yield them|ne- ver Our|watch- word ev- er-|more shall be The|
w: dis- cord can- not|sev- er, And|flour- ish green o’er|Free- dom’s home The|
w: rocks and for- est|quiv- er; “God|save our King and|Heav- en bless The|
 [EG]2 [Ge]2 [Fd]3 [Ec] | [Ec] [DB]3 z2 ||"^Refrain" [DF]2 | [B,D]2 [DF]2 [DB]3 [DF] | %19
w: Ma- ple Leaf for-|ev- er.|||
w: Ma- ple Leaf for-|ev- er.|The|Ma- ple Leaf, our|
w: Ma- ple Leaf for-|ev- er.|||
w: Ma- ple Leaf for-|ev- er!”|||
 [EG]2 [EB]2 [DF]3 [DF] | [EG]2 [FG]2 [Ge]3 [Gd] | [Fd] [Fc]3 z2 F2 | [Ff]2 [Fd]2 [FB]2 [FA]2 | %23
w: ||||
w: em- blem dear, The|Ma- ple Leaf for-|ev- er! God|save the King and|
w: ||||
w: ||||
 [EG]2 [EB]2 [DF]3 [DF] | [EG]2 [Ge]2 [Fd]3 [Ec] | [Ec] [DB]3 |] %26
w: |||
w: Heav- en bless The|Ma- ple Leaf for-|ev- er!|
w: |||
w: |||
V:2
 x2 | x8 | x8 | x8 | x4 F3 x | x8 | x6 F2 | x8 | C2 D2 x4 | x8 | x8 | x8 | x6 F2 | x8 | x8 | x8 | %16
 x6 || x2 | x8 | x8 | x8 | x6 F2 | x8 | x8 | x8 | x4 |] %26
V:3
 [B,,B,]2 | [B,,F,]2 [B,,B,]2 [B,,B,]3 [D,B,] | [E,B,]2 [E,G,]2 [B,,B,]4 | %3
 [F,C]3 [F,B,] [F,A,]2 [F,B,]2 | [C,C]2 [C,B,]2 [F,A,]3 F, | [B,,F,]2 [B,,B,]2 [B,,F,]2 [B,,F,]2 | %6
 [B,,B,]2 [D,B,]2 [E,B,]2 ([E,B,][D,B,]) | [C,A,][C,A,] [C,G,]2 [C,C]2 ([C,B,][F,A,]) | %8
 (A,2 B,2 [F,C]2) [F,A,]2 | [B,,B,]2 [B,,B,]2 [B,,F,]3 [B,,B,] | [E,B,]2 [E,G,]2 [B,,B,]3 [B,,B,] | %11
 [E,B,]2 [D,=B,]2 [C,C]3 [D,B,] | [F,B,] [F,A,]3 z2 A,2 | [D,B,]2 [B,,B,]2 [D,B,]2 [D,B,]2 | %14
 [E,B,]2 [E,G,]2 [B,,B,]3 [B,,B,] | [E,B,]2 [C,C]2 [F,B,]3 [F,A,] | [F,,A,] [B,,F,B,]3 z2 || %17
 [B,,B,]2 | [B,,F,]2 [B,,B,]2 [B,,F,]3 [B,,B,] | [E,B,]2 [E,G,]2 [B,,B,]3 [B,,B,] | %20
 [E,B,]2 [D,=B,]2 [C,C]3 [D,B,] | [F,B,] [F,A,]3 z2 A,2 | [D,B,]2 [B,,B,]2 [D,B,]2 [D,B,]2 | %23
 [E,B,]2 [E,G,]2 [B,,B,]3 [B,,B,] | [E,B,]2 [C,C]2 [F,B,]3 [F,A,] | [F,,A,] [B,,F,B,]3 |] %26
V:4
 x2 | x8 | x8 | x8 | x7 F, | x8 | x8 | x8 | F,4 x4 | x8 | x8 | x8 | x6 (F,E,) | x8 | x8 | x8 | %16
 x6 || x2 | x8 | x8 | x8 | x6 (F,E,) | x8 | x8 | x8 | x4 |] %26

